src/assets/img/Careers/icons/foldericon.svg

<svg width="34" height="34" viewBox="0 0 34 34" fill="none" xmlns="http://www.w3.org/2000/svg">
<g id="Icon">
<g id="Union">
<path fill-rule="evenodd" clip-rule="evenodd" d="M2.125 13.9291V16.4688C2.125 17.9358 3.31424 19.125 4.78125 19.125H29.2188C30.6858 19.125 31.875 17.9358 31.875 16.4688V13.9291C31.875 12.9146 31.5121 11.9336 30.8518 11.1633L26.1983 5.73414C25.3909 4.79214 24.2121 4.25 22.9715 4.25H11.0285C9.78786 4.25 8.60913 4.79214 7.8017 5.73414L3.14816 11.1633C2.48792 11.9336 2.125 12.9146 2.125 13.9291ZM11.0285 6.375C10.4082 6.375 9.81883 6.64607 9.41512 7.11707L5.49761 11.6875H9.9816C11.4026 11.6875 12.7296 12.3977 13.5178 13.58L13.7503 13.9287C14.1444 14.5199 14.8079 14.875 15.5184 14.875H18.4816C19.1921 14.875 19.8556 14.5199 20.2497 13.9287L20.4822 13.58C21.2704 12.3977 22.5974 11.6875 24.0184 11.6875H28.5024L24.5849 7.11707C24.1812 6.64607 23.5918 6.375 22.9715 6.375H11.0285Z" fill="#CAFF33"/>
<path d="M3.98438 21.25C2.95747 21.25 2.125 22.0825 2.125 23.1094V25.5C2.125 27.8472 4.02779 29.75 6.375 29.75H27.625C29.9722 29.75 31.875 27.8472 31.875 25.5V23.1094C31.875 22.0825 31.0425 21.25 30.0156 21.25H24.0184C22.5974 21.25 21.2704 21.9602 20.4822 23.1425L20.2497 23.4912C19.8556 24.0824 19.1921 24.4375 18.4816 24.4375H15.5184C14.8079 24.4375 14.1444 24.0824 13.7503 23.4912L13.5178 23.1425C12.7296 21.9602 11.4026 21.25 9.9816 21.25H3.98438Z" fill="#CAFF33"/>
</g>
</g>
</svg>

<svg width="34" height="34" fill="none" xmlns="http://www.w3.org/2000/svg"><g fill="#CAFF33"><path fill-rule="evenodd" clip-rule="evenodd" d="M2.125 13.93v2.539a2.656 2.656 0 0 0 2.656 2.656H29.22a2.656 2.656 0 0 0 2.656-2.656v-2.54a4.25 4.25 0 0 0-1.023-2.766l-4.654-5.429a4.25 4.25 0 0 0-3.227-1.484H11.028a4.25 4.25 0 0 0-3.226 1.484l-4.654 5.43a4.25 4.25 0 0 0-1.023 2.765Zm8.903-7.555c-.62 0-1.21.271-1.613.742l-3.917 4.57h4.484a4.25 4.25 0 0 1 3.536 1.893l.232.349a2.125 2.125 0 0 0 1.768.946h2.964c.71 0 1.374-.355 1.768-.946l.232-.349a4.25 4.25 0 0 1 3.536-1.893h4.484l-3.917-4.57a2.125 2.125 0 0 0-1.614-.742H11.028Z"/><path d="M3.984 21.25a1.86 1.86 0 0 0-1.859 1.86v2.39a4.25 4.25 0 0 0 4.25 4.25h21.25a4.25 4.25 0 0 0 4.25-4.25v-2.39a1.86 1.86 0 0 0-1.86-1.86h-5.997a4.25 4.25 0 0 0-3.536 1.892l-.232.35a2.125 2.125 0 0 1-1.768.945h-2.964c-.71 0-1.374-.355-1.768-.946l-.232-.349a4.25 4.25 0 0 0-3.536-1.892H3.984Z"/></g></svg>
